svg/OSM-icons/amenity #7bffff °373737 !label=enamenities,deEinrichtungen/12098;amenity=parking_entrance;!name=;feature_group=car;[parking];[contact];!label=enparking entrance,deParkplatz Einfahrt.svg

<svg xmlns="http://www.w3.org/2000/svg" viewBox="0 0 580 580" enable-background="new 0 0 580 580"><path fill="#111" stroke="#eee" stroke-width="3.408" d="m66.28 1.768c-41.34 0-64.57 21.371-64.57 65.04v450.12c0 40.844 20.894 62.23 62.19 62.23h452.02c41.31 0 62.23-20.316 62.23-62.23v-450.12c0-42.601-20.923-65.04-63.52-65.04-.003 0-448.49-.143-448.35 0z"/><g fill="#fff"><path d="m157.34 473.19h45.998c5.19 0 9.397-4.207 9.397-9.397v-131.91h79.75c52.39 0 88-11.04 108.87-33.744 20.366-22.16 30.692-49.55 30.692-81.4 0-18.588-3.87-35.931-11.505-51.55-7.718-15.78-18.13-28.28-30.956-37.15-12.617-8.727-28.313-14.706-46.65-17.77-12.842-2.327-30.665-3.458-54.48-3.458h-131.12c-5.19 0-9.397 4.208-9.397 9.397v347.59c-.0001 5.19 4.207 9.395 9.397 9.395m192.93-215.36c-10.657 9.443-29.859 14.232-57.07 14.232h-80.46v-105.45h79.51c24.855.0001 35.746 1.506 40.41 2.743 9.957 2.751 17.77 8.276 23.886 16.891 6.25 8.805 9.289 19.24 9.291 31.902-.002 17.419-5.094 30.397-15.567 39.677"/><path d="m522.55 38.92h-465.11c-10.215 0-18.525 8.31-18.525 18.525v465.11c0 10.215 8.31 18.525 18.525 18.525h465.11c10.215 0 18.525-8.311 18.525-18.525v-465.11c0-10.215-8.31-18.525-18.525-18.525m-5.475 478.16h-454.16v-454.16h454.16v454.16"/></g></svg>

<?xml version="1.0" encoding="utf-8"?>
<!-- Generator: Adobe Illustrator 15.0.0, SVG Export Plug-In . SVG Version: 6.00 Build 0)  -->
<!DOCTYPE svg PUBLIC "-//W3C//DTD SVG 1.1//EN" "http://www.w3.org/Graphics/SVG/1.1/DTD/svg11.dtd">
<svg version="1.1" xmlns="http://www.w3.org/2000/svg" xmlns:xlink="http://www.w3.org/1999/xlink" x="0px" y="0px" width="580px"
	 height="580px" viewBox="0 0 580 580" enable-background="new 0 0 580 580" xml:space="preserve">
<g id="Layer_2">
	<g id="g1327">
		<path id="path1329" fill="#111111" stroke="#EEEEEE" stroke-width="3.408" d="M66.275,1.768
			c-41.335,0-64.571,21.371-64.571,65.036v450.123c0,40.844,20.894,62.229,62.192,62.229H515.92
			c41.307,0,62.229-20.316,62.229-62.229V66.804c0-42.601-20.923-65.036-63.522-65.036C514.624,1.768,66.133,1.625,66.275,1.768z"/>
	</g>
</g>
<g id="svg2" inkscape:version="0.46" sodipodi:docname="waste_bin.svg" sodipodi:version="0.32" xmlns:dc="http://purl.org/dc/elements/1.1/" xmlns:cc="http://creativecommons.org/ns#" xmlns:sodipodi="http://sodipodi.sourceforge.net/DTD/sodipodi-0.dtd" xmlns:svg="http://www.w3.org/2000/svg" xmlns:rdf="http://www.w3.org/1999/02/22-rdf-syntax-ns#" xmlns:inkscape="http://www.inkscape.org/namespaces/inkscape" inkscape:output_extension="org.inkscape.output.svg.inkscape">
	<g>
		<path fill="#FFFFFF" d="M157.343,473.189h45.998c5.19,0,9.397-4.207,9.397-9.397V331.88h79.752
			c52.393,0,88.005-11.038,108.872-33.744c20.366-22.163,30.692-49.55,30.692-81.4c0-18.588-3.87-35.931-11.505-51.549
			c-7.718-15.78-18.133-28.278-30.956-37.15c-12.617-8.727-28.313-14.706-46.65-17.77c-12.842-2.327-30.665-3.458-54.484-3.458
			H157.343c-5.19,0-9.397,4.208-9.397,9.397v347.588C147.945,468.984,152.153,473.189,157.343,473.189z M350.273,257.834
			c-10.657,9.443-29.859,14.232-57.073,14.232h-80.462V166.621h79.513c24.855,0.001,35.746,1.506,40.412,2.743
			c9.957,2.751,17.77,8.276,23.886,16.891c6.25,8.805,9.289,19.24,9.291,31.902C365.838,235.576,360.746,248.554,350.273,257.834z"
			/>
		<path fill="#FFFFFF" d="M522.555,38.92H57.445c-10.215,0-18.525,8.31-18.525,18.525v465.11c0,10.215,8.31,18.525,18.525,18.525
			h465.11c10.215,0,18.525-8.311,18.525-18.525V57.445C541.08,47.23,532.77,38.92,522.555,38.92z M517.08,517.08H62.92V62.92h454.16
			V517.08z"/>
	</g>
</g>
</svg>
